X: 1
T:Kelly - the Boy from Killane
M:C
L:1/8
Q:80
C:Trad.
S:March
K:HP
|: {g}A{d}c|
{gef}e2{gcd}ce{ag}a2{g}af|
{gef}e2{gcd}c{d}A{g}B2{g}A{d}B|  !
{gcd}c2{e}B{d}c{gef}ed{g}B{d}G|
{g}A4{GAG}A2:|
{gcd}ce|  !
{g}f2{Gdc}df{ag}a2{g}af|
{gef}e2{g}af{gef}e2{gcd}ce|
{gfg}f2{Gdc}df{ag}a2{g}af|  !
{gef}e4{A}e2{g}A{d}c|
{gef}e2{gcd}ce{ag}a2{g}af|
{gef}e2{gcd}c{d}A{g}B2{g}A{d}B|  !
{gcd}c2{e}B{d}c{gef}ed{g}B{d}G|
{g}A4{GAG}A2|]
